icons/apple-line.svg

<svg xmlns="http://www.w3.org/2000/svg" width="24" height="24" fill="none"><g clip-path="url(#a)"><g><path fill="#121212" d="M15.7286 8.20798C15.2556 8.17098 14.7476 8.28398 13.9696 8.58098C14.0356 8.55598 13.2276 8.87098 13.0016 8.95098C12.4996 9.12598 12.0866 9.22198 11.6236 9.22198C11.1656 9.22198 10.7436 9.12998 10.2576 8.96698C10.1026 8.91397 9.94657 8.85698 9.75257 8.78098C9.67057 8.74898 9.37057 8.62898 9.30457 8.60398C8.65657 8.34998 8.29157 8.25398 7.98857 8.26198C6.83657 8.27698 5.74557 8.94197 5.11257 10.044C3.82057 12.288 4.53557 16.343 6.42457 19.075C7.43057 20.519 7.98057 21.035 8.20257 21.028C8.42457 21.018 8.58757 20.971 8.98557 20.803L9.15257 20.732C10.1576 20.303 10.8626 20.114 11.9236 20.114C12.9446 20.114 13.6266 20.3 14.5916 20.716L14.7596 20.788C15.1576 20.958 15.3016 20.996 15.5516 20.99C15.9096 20.985 16.3506 20.573 17.3296 19.136C17.5976 18.745 17.8346 18.333 18.0396 17.916C17.9048 17.805 17.7741 17.6893 17.6476 17.569C16.3586 16.341 15.5616 14.685 15.5396 12.639C15.518 11.1251 16.0156 9.64959 16.9496 8.45798C16.5576 8.31327 16.1459 8.22897 15.7286 8.20798ZM15.8836 6.21398C16.5916 6.26198 18.6196 6.47798 19.9396 8.40998C19.8316 8.46998 17.5156 9.81397 17.5396 12.622C17.5756 15.982 20.4796 17.098 20.5156 17.11C20.4916 17.194 20.0476 18.706 18.9796 20.266C18.0556 21.622 17.0956 22.966 15.5836 22.99C14.0956 23.026 13.6156 22.114 11.9236 22.114C10.2196 22.114 9.69157 22.966 8.28757 23.026C6.82357 23.074 5.71957 21.562 4.78357 20.218C2.87557 17.458 1.42357 12.442 3.37957 9.04597C4.35157 7.35397 6.07957 6.28598 7.96357 6.26198C9.39157 6.22598 10.7476 7.22198 11.6236 7.22198C12.4876 7.22198 14.0356 6.06998 15.8836 6.21398ZM14.7436 4.38998C13.9636 5.32598 12.6916 6.05798 11.4556 5.96198C11.2876 4.68998 11.9116 3.35798 12.6316 2.52998C13.4356 1.59398 14.7796 0.897976 15.8956 0.849976C16.0396 2.14598 15.5236 3.45398 14.7436 4.38998Z"/></g></g><defs><clipPath id="a"><rect width="24" height="24" fill="white"/></clipPath></defs></svg>

<svg width="24" height="24" fill="none" xmlns="http://www.w3.org/2000/svg"><g clip-path="url(#a)"><path d="M15.729 8.208c-.473-.037-.981.076-1.76.373.067-.025-.741.29-.967.37-.502.175-.915.271-1.378.271-.458 0-.88-.092-1.366-.255a11.87 11.87 0 0 1-.505-.186c-.082-.032-.382-.152-.448-.177-.648-.254-1.013-.35-1.316-.342-1.152.015-2.243.68-2.876 1.782-1.292 2.244-.577 6.299 1.312 9.031 1.006 1.444 1.556 1.96 1.778 1.953.222-.01.385-.057.783-.225l.167-.071c1.005-.429 1.71-.618 2.77-.618 1.022 0 1.704.186 2.669.602l.168.072c.398.17.542.208.792.202.358-.005.799-.417 1.778-1.854.268-.391.505-.803.71-1.22a7.331 7.331 0 0 1-.392-.347c-1.29-1.228-2.086-2.884-2.108-4.93a6.624 6.624 0 0 1 1.41-4.181 4.124 4.124 0 0 0-1.221-.25Zm.155-1.994c.708.048 2.736.264 4.056 2.196-.108.06-2.424 1.404-2.4 4.212.036 3.36 2.94 4.476 2.976 4.488-.024.084-.468 1.596-1.536 3.156-.924 1.356-1.884 2.7-3.396 2.724-1.488.036-1.968-.876-3.66-.876-1.704 0-2.232.852-3.636.912-1.464.048-2.568-1.464-3.504-2.808-1.908-2.76-3.36-7.776-1.404-11.172.972-1.692 2.7-2.76 4.584-2.784 1.428-.036 2.784.96 3.66.96.864 0 2.412-1.152 4.26-1.008Zm-1.14-1.824c-.78.936-2.052 1.668-3.288 1.572-.168-1.272.456-2.604 1.176-3.432.804-.936 2.148-1.632 3.264-1.68.144 1.296-.372 2.604-1.152 3.54Z" /></g><defs><clipPath id="a"><path fill="#fff" d="M0 0h24v24H0z"/></clipPath></defs></svg>
